X:1
T:Title
%%score { ( 1 3 ) | 2 }
L:1/8
Q:1/4=100
M:4/4
K:Bb
V:1 treble nm="Grand Piano"
V:3 treble 
V:2 bass 
V:1
 [B,D]2 [DF]2 [DB]2 [FA]2 | [FA]2 G2 G2 B>B | (3AAA E>F A4 | (3[DG][DG][DG] [B,D]>[EG] [DF]4 | %4
w: Ira~B.~Wilson * * *||||
 [B,D]2 [DF]2 [DB]2 [FA]2 | [FA]2 [EG]2 [EG]2 [Ge]>[Ge] | (3ddd F>B d2 c>c |[M:3/4] [DB]6 | %8
w: ||||
[M:1/4] [DB]>[FA] |[M:4/4] (3[FA]GG G>G [Ge]4 | (3[Ge][Fd][Fd] [Fd]>[=Ec] [Fd]4 | %11
w: |||
 (3[^Fd][Fd][Fd] [FA]>[Fc] [GB]>[DG] [=Ec]>[Ed] | c6 z2 | D2 [DF]2 [DB]2 [FA]2 | %14
w: |||
 [FA]2 [EG]2 [EG]2 [Ge]>[Ge] | (3ddd F>B d2 c>c | [DB]6 z2 |] %17
w: |||
V:2
 [B,,F,]2 [B,,B,]2 [B,,B,]2 [D,B,]2 | [E,B,]2 [E,B,E]2 [E,B,E]2 [E,G,E]>[E,G,E] | %2
 (3[F,E][F,E][F,E] [F,A,C]>[F,A,D] [F,CE]4 | (3[B,,B,][B,,B,][B,,B,] [B,,F,]>[B,,B,] [B,,B,]4 | %4
 [B,,F,]2 [B,,B,]2 [B,,B,]2 [D,B,]2 | [E,B,]2 [E,B,]2 [E,B,]2 [E,B,]>[E,B,] | %6
 (3[F,B,F][F,B,F][F,B,F] [F,B,D]>[F,DF] [F,B,F]2 [F,A,E]>[F,A,E] |[M:3/4] [B,,B,]6 | %8
[M:1/4] [=B,,B,]>[D,B,] |[M:4/4] (3[E,B,][E,CE][E,B,E] [E,B,E]>[E,B,E] [E,B,]4 | %10
 (3[B,,B,][B,,B,][B,,B,] [B,,B,]>[B,,B,] [B,,B,]4 | %11
 (3[D,A,][D,A,][D,A,] [D,D]>[D,D] [G,D]>[G,B,] [C,B,]>[C,B,] | %12
 [F,A,F]2 (3[C,-G,][C,A,][C,B,] [F,A,]2 z2 | [B,,F,B,]2 [B,,B,]2 [B,,B,]2 [D,B,]2 | %14
 [E,B,]2 [E,B,]2 [E,B,]2 [E,B,]>[E,B,] | %15
 (3[F,B,F][F,B,F][F,B,F] [F,B,D]>[F,DF] [F,B,F]2 [F,A,E]>[F,A,E] | [B,,B,]6 z2 |] %17
V:3
 x8 | x8 | x8 | x8 | x8 | x8 | x8 |[M:3/4] x6 |[M:1/4] x2 |[M:4/4] x8 | x8 | x8 | z2 (3=EFG F2 z2 | %13
 x8 | x8 | x8 | x8 |] %17

